X:1
T: The Lecarrow
M:C
K:G
d2 c|:BE ~E2 DEGA|BE ~E2 d2 BA|BE ~E2 DEGA|BedB ABGA:|
|:~B2 ed c/2B/2A GA|~d2 ef g2 ag|eged c/2B/2A GA|BedB ABGA:|
